icons/contenthook.svg

<!--
  - The MIT License (MIT)
  -
  - Copyright (c) 2015-2024 Elior "Mallowigi" Boukhobza
  -
  - Permission is hereby granted, free of charge, to any person obtaining a copy
  - of this software and associated documentation files (the "Software"), to deal
  - in the Software without restriction, including without limitation the rights
  - to use, copy, modify, merge, publish, distribute, sublicense, and/or sell
  - copies of the Software, and to permit persons to whom the Software is
  - furnished to do so, subject to the following conditions:
  -
  - The above copyright notice and this permission notice shall be included in all
  - copies or substantial portions of the Software.
  -
  - THE SOFTWARE IS PROVIDED "AS IS", WITHOUT WARRANTY OF ANY KIND, EXPRESS OR
  - IMPLIED, INCLUDING BUT NOT LIMITED TO THE WARRANTIES OF MERCHANTABILITY,
  - FITNESS FOR A PARTICULAR PURPOSE AND NONINFRINGEMENT. IN NO EVENT SHALL THE
  - AUTHORS OR COPYRIGHT HOLDERS BE LIABLE FOR ANY CLAIM, DAMAGES OR OTHER
  - LIABILITY, WHETHER IN AN ACTION OF CONTRACT, TORT OR OTHERWISE, ARISING FROM,
  - OUT OF OR IN CONNECTION WITH THE SOFTWARE OR THE USE OR OTHER DEALINGS IN THE
  - SOFTWARE.
  -
  -->

<svg xmlns="http://www.w3.org/2000/svg" width="16px" zoomAndPan="magnify"
     viewBox="0 0 375 374.999991" height="16px" preserveAspectRatio="xMidYMid meet" version="1.0">
  <g fill="#BDBDBD" data-iconColor="ContentHook">
    <path
        d="M 277.324219 255.632812 L 261.882812 264.433594 L 196.621094 302.203125 L 98.246094 245.234375 L 98.4375 130.207031 L 197.894531 73.046875 L 262.777344 110.367188 L 278.40625 119.492188 L 326.957031 89.953125 L 230.75 34.386719 L 197.894531 53.398438 L 98.4375 110.558594 L 98.4375 90.910156 L 163.703125 53.144531 L 163.894531 53.144531 L 180.734375 43.320312 L 163.636719 33.496094 L 81.40625 80.894531 L 81.40625 139.96875 L 81.214844 235.34375 L 64.117188 225.328125 L 64.117188 130.144531 L 47.019531 139.96875 L 47.019531 235.152344 L 70.941406 248.996094 L 70.941406 248.804688 L 179.523438 311.964844 L 163.511719 321.148438 L 98.246094 283.191406 L 81.148438 273.175781 L 81.148438 293.015625 L 163.511719 340.800781 L 189.347656 326.0625 L 189.347656 325.871094 L 213.460938 312.027344 L 278.980469 274.257812 L 285.617188 278.085938 L 296.078125 284.085938 L 213.71875 331.675781 L 230.558594 341.5 L 327.976562 285.488281 L 277.324219 255.695312 Z M 230.75 54.035156 L 295.632812 91.613281 L 279.617188 100.796875 L 214.992188 63.222656 Z M 230.75 54.035156 "
    />
  </g>
</svg>

<svg xmlns="http://www.w3.org/2000/svg" viewBox="0 0 375 375"><path fill="#bdbdbd" d="m277.324 255.633-15.441 8.8-65.262 37.77-98.375-56.969.192-115.027 99.457-57.16 64.882 37.32 15.63 9.125 48.55-29.539-96.207-55.566-32.855 19.011-99.458 57.16V90.91l65.266-37.765h.192l16.84-9.825-17.098-9.824-82.23 47.399v59.074l-.192 95.375-17.098-10.016v-95.183l-17.097 9.824v95.183l23.921 13.844v-.191l108.582 63.16-16.011 9.183-65.266-37.957-17.098-10.015v19.84l82.364 47.785 25.836-14.738v-.192l24.113-13.844 65.52-37.77 6.636 3.829 10.461 6-82.36 47.59 16.84 9.824 97.419-56.012-50.653-29.793ZM230.75 54.035l64.883 37.578-16.016 9.184-64.625-37.574Zm0 0" data-iconColor="ContentHook"/></svg>
